img/assets/sectionServices/magazine.svg

<svg height="80" viewBox="0 0 82 80" width="82" xmlns="http://www.w3.org/2000/svg"><g fill="#888"><path d="m80.361.18h-60.57a1.361 1.361 0 0 0 -1.371 1.42v54.744h-16.795a1.473 1.473 0 0 0 -1.445 1.476v11.27a11.066 11.066 0 0 0 3.05 7.71 10.257 10.257 0 0 0 7.478 3.2h61.58c5.248 0 9.518-4.406 9.518-9.855v-68.545a1.422 1.422 0 0 0 -1.446-1.42zm-69.653 76.957a7.405 7.405 0 0 1 -5.39-2.322 8.22 8.22 0 0 1 -2.248-5.724v-9.858h15.35v9.858a8.254 8.254 0 0 1 -2.285 5.724 7.488 7.488 0 0 1 -5.427 2.322zm68.208-6.992c0 3.856-2.973 6.966-6.628 6.966h-54.428c.11 0 .255-.201.361-.312a11.098 11.098 0 0 0 3.088-7.708v-66.021h57.607z"/><path d="m27.587 13.905h24.13a1.445 1.445 0 1 0 0-2.89h-24.13a1.445 1.445 0 0 0 0 2.89zm0 7.224h45.078a1.445 1.445 0 1 0 0-2.89h-45.078a1.445 1.445 0 0 0 0 2.89zm0 7.043h45.078a1.445 1.445 0 1 0 0-2.89h-45.078a1.445 1.445 0 0 0 0 2.89zm45.912 6.862c0-.798-.647-1.445-1.445-1.445h-44.244c-.797 0-1.444.647-1.444 1.445v31.603c0 .797.647 1.444 1.444 1.444h44.244c.798 0 1.445-.647 1.445-1.444zm-2.709 1.445v17.925l-10.972-7.748a1.468 1.468 0 0 0 -1.865.148l-8.586 8.431-9.943-4.843a1.52 1.52 0 0 0 -1.394.049l-8.775 5.068v-19.029h41.535zm-41.535 22.37 9.557-5.523 8.343 4.085-8.055 7.961h-9.845v-6.522zm13.967 6.523 15.912-15.632 11.656 8.206v7.427h-27.568z"/><path d="m47.657 50.38a4.915 4.915 0 1 0 0-9.83 4.915 4.915 0 0 0 0 9.83zm0-6.94a2.026 2.026 0 1 1 0 4.052 2.026 2.026 0 0 1 0-4.052z"/></g></svg>

<svg xmlns="http://www.w3.org/2000/svg" width="82" height="80" viewBox="0 0 82 80"><title>magazine</title><g fill="#888" fill-rule="nonzero"><path d="M80.361.18h-60.57A1.361 1.361 0 0 0 18.42 1.6v54.744H1.625A1.473 1.473 0 0 0 .18 57.82v11.27a11.066 11.066 0 0 0 3.05 7.71 10.257 10.257 0 0 0 7.478 3.2h61.58c5.248 0 9.518-4.406 9.518-9.855V1.6A1.422 1.422 0 0 0 80.36.18zM10.708 77.137a7.405 7.405 0 0 1-5.39-2.322 8.22 8.22 0 0 1-2.248-5.724v-9.858h15.35v9.858a8.254 8.254 0 0 1-2.285 5.724 7.488 7.488 0 0 1-5.427 2.322zm68.208-6.992c0 3.856-2.973 6.966-6.628 6.966H17.86c.11 0 .255-.201.361-.312a11.098 11.098 0 0 0 3.088-7.708V3.07h57.607v67.075z"/><path d="M27.587 13.905h24.13a1.445 1.445 0 100-2.89h-24.13a1.445 1.445 0 000 2.89zM27.587 21.129h45.078a1.445 1.445 0 100-2.89H27.587a1.445 1.445 0 000 2.89zM27.587 28.172h45.078a1.445 1.445 0 100-2.89H27.587a1.445 1.445 0 000 2.89zM73.499 35.034c0-.798-.647-1.445-1.445-1.445H27.81c-.797 0-1.444.647-1.444 1.445v31.603c0 .797.647 1.444 1.444 1.444h44.244c.798 0 1.445-.647 1.445-1.444V35.034zm-2.709 1.445v17.925l-10.972-7.748a1.468 1.468 0 00-1.865.148l-8.586 8.431-9.943-4.843a1.52 1.52 0 00-1.394.049l-8.775 5.068V36.48H70.79zm-41.535 22.37l9.557-5.523 8.343 4.085-8.055 7.961h-9.845V58.85zm13.967 6.523L59.134 49.74l11.656 8.206v7.427H43.222z"/><path d="M47.657 50.38a4.915 4.915 0 1 0 0-9.83 4.915 4.915 0 0 0 0 9.83zm0-6.94a2.026 2.026 0 1 1 0 4.052 2.026 2.026 0 0 1 0-4.052z"/></g></svg>
